X:1
T:Ach Gott ein grosze Pein
T:Jacob Regnart
T:Source : Leipzig---Breitkopf & Härtel---R.Eitner---1895. First print : Deutsche Lieder mit 3 Stimmen---Nürnberg---D.Gerlach---1579. Editor : André Vierendeels (26/10/17). Notes : Original clefs  : C1, C3, C4 Editorial accidentals above the staff
T:Ach Gott ein grosze Pein
T:©
T:©
C:Jacob Regnart
Z:©
%%score [ 1 2 3 ]
L:1/8
Q:1/4=120
M:2/2
K:C
V:1 treble nm="Soprano" snm="S"
V:2 treble nm="Alto" snm="A"
V:3 treble-8 nm="Tenor" snm="T"
V:1
"^1)" A4 _B4 | A4 d2 d2 | c4 A4 | G2 F2 E2 D2 |1[M:2/4] E4 ::2[M:2/2] E2 E2 A4- || A2 A2 A4 | %7
w: Ach Gott,|ein gros- ze|Pein kren-|cket das Hert- ze|mein,|mein, das ich|_ mein Leid|
w: Das Feur|mit hel- len|Schein pflegt|im- mer hit- zig|sein,|sein, noch brinnt|_ vil mehr|
 _B4 G2 G2 | A4 F4- | F2 F2 G4 |[M:2/4] E4 :: z2 F2- |[M:2/2] F2 E2 F2 G2 | E4 !fermata!F4 :| %14
w: nie- mand je|darff ma-|* chen be-|kandt:|ach|_ Gott, ein gros-|ze Pein!|
w: mein Seel durch|heim- lich|_ Feur und|Quel;|ach|_ Gott, ein gros-|ze Pein!|
V:2
"^2)""^1)" ^F4 G4 | F4 F2 G2 | A4 F4 | E2 D2 C2 D2 |1[M:2/4] ^C4 ::2[M:2/2] ^C4 z2 C2 || %6
w: Ach Gott,|ein gros- ze|Pein kren-|cket das Hert- ze|mein,|mein, das|
w: Die in-|ner- li- che|Flamm schlegt|ü- bers Hertz zu-|samm,|samm; in|
"^-natural" F4 F2 F2- | F2 F2 E4 | z2 C2 D4 | D2 D4 D2 |[M:2/4] ^C4 :: z2 D2- |[M:2/2] D2 C4 B,2 | %13
w: ich mein Leid|_ nie- mand|je darff|ma- chen be-|kandt:|ach|_ Gott, ein|
w: dem Feur ich|_ ver- brinn,|ohn Hülff|sterb ich da-|hin.|Ach|_ Gott, ein|
 ^C2 C2 !fermata!D4 :| %14
w: gros- ze Pein!|
w: gros- ze Pein!|
V:3
"^3)""^1)""^4)" d4 G4 | d4 _B2 B2 | A2 F2 FGA_B | c2 d2 A2 _B2 |1[M:2/4] A4 ::2[M:2/2] A4 z2 A2 || %6
w: Ach Gott,|ein gros- ze|Pein kren- cket _ _ _|_ das Hert- ze|mein,|mein, das|
w: Ausz Angst,|Jung- frau, hilff|mir! Mein Le- * * *|* ben steht bei|dir,|dir. Hilff|
 d4 d2 d2- | d2 _B2 c4 |"^b" z2 F2 B4 |"^b""^b" B2 B4 G2 |[M:2/4] A4 :: _B4 |[M:2/2] A6 G2 | %13
w: ich mein Leid|_ nie- mand|je darff|ma- chen be-|kandt:|ach|Gott, ein|
w: mir ausz di-|* ser Not,|sonst gibs-|tu mir den|Todt.|Ach|Gott, ein|
 A2 A2 !fermata!D4 :| %14
w: gros- ze Pein!|
w: schwe- re Pein!|

